spray.svg

<svg fill="currentColor" viewBox="0 0 24 24"><path d="M10 4h2v2h-2zM7 3h2v2H7zm0 3h2v2H7zM6 8v2H4V8zm0-3v2H4V5zm0-3v2H4V2zm7 20a2 2 0 0 1-2-2V10a2 2 0 0 1 2-2V7h1V4h3v3h1v1a2 2 0 0 1 2 2v10a2 2 0 0 1-2 2zm0-12v10h5V10z"/></svg>

<svg  viewBox="0 0 24 24" fill="currentColor"><path  d="M10,4H12V6H10V4M7,3H9V5H7V3M7,6H9V8H7V6M6,8V10H4V8H6M6,5V7H4V5H6M6,2V4H4V2H6M13,22A2,2 0 0,1 11,20V10A2,2 0 0,1 13,8V7H14V4H17V7H18V8A2,2 0 0,1 20,10V20A2,2 0 0,1 18,22H13M13,10V20H18V10H13Z"/></svg>
